public/images/mitechstore-logo.svg

<svg xmlns="http://www.w3.org/2000/svg" xmlns:xlink="http://www.w3.org/1999/xlink" width="4.2em" height="4.2em" zoomAndPan="magnify" viewBox="0 0 48.75 48.75" preserveAspectRatio="xMidYMid meet" version="1.0"><defs><clipPath id="e7ac550369"><path d="M 0 0 L 48.5 0 L 48.5 48.5 L 0 48.5 Z M 0 0 " clip-rule="nonzero"/></clipPath><clipPath id="7fb3c601d6"><path d="M 7.40625 13 L 40.984375 13 L 40.984375 36 L 7.40625 36 Z M 7.40625 13 " clip-rule="nonzero"/></clipPath></defs><g clip-path="url(#e7ac550369)"><path fill="#ffffff" d="M 0 0 L 48.5 0 L 48.5 48.5 L 0 48.5 Z M 0 0 " fill-opacity="1" fill-rule="nonzero"/><path fill="#171717" d="M 0 0 L 48.5 0 L 48.5 48.5 L 0 48.5 Z M 0 0 " fill-opacity="1" fill-rule="nonzero"/></g><g clip-path="url(#7fb3c601d6)"><path fill="#ffffff" d="M 35.332031 35.386719 C 35.207031 35.386719 35.101562 35.34375 35.015625 35.257812 C 34.925781 35.167969 34.882812 35.0625 34.882812 34.941406 L 34.882812 13.449219 C 34.882812 13.324219 34.925781 13.21875 35.015625 13.132812 C 35.101562 13.046875 35.207031 13.003906 35.332031 13.003906 L 40.523438 13.003906 C 40.648438 13 40.757812 13.039062 40.847656 13.128906 C 40.9375 13.214844 40.984375 13.324219 40.984375 13.449219 L 40.984375 34.941406 C 40.984375 35.066406 40.9375 35.171875 40.847656 35.261719 C 40.757812 35.347656 40.648438 35.390625 40.523438 35.386719 Z M 26.628906 35.386719 C 26.628906 35.386719 26.210938 35.261719 26.210938 34.941406 L 26.210938 21.746094 C 26.222656 21.332031 26.152344 20.929688 26.003906 20.542969 C 25.851562 20.15625 25.632812 19.8125 25.339844 19.515625 C 25.050781 19.21875 24.714844 18.992188 24.332031 18.832031 C 23.945312 18.671875 23.546875 18.59375 23.132812 18.597656 L 13.421875 18.597656 C 12.863281 18.597656 13.003906 19.019531 13.003906 19.019531 L 13.003906 34.941406 C 13.003906 35.316406 12.582031 35.386719 12.582031 35.386719 L 7.867188 35.386719 C 7.742188 35.390625 7.632812 35.347656 7.542969 35.261719 C 7.449219 35.171875 7.40625 35.066406 7.40625 34.941406 L 7.40625 13.449219 C 7.40625 13.324219 7.449219 13.214844 7.542969 13.128906 C 7.632812 13.039062 7.742188 13 7.867188 13.003906 L 25.859375 13.003906 C 26.25 13.003906 26.636719 13.046875 27.019531 13.125 C 27.402344 13.203125 27.773438 13.316406 28.136719 13.46875 C 28.496094 13.621094 28.835938 13.804688 29.160156 14.023438 C 29.484375 14.242188 29.785156 14.488281 30.0625 14.765625 C 30.335938 15.042969 30.582031 15.34375 30.800781 15.667969 C 31.015625 15.996094 31.199219 16.335938 31.351562 16.699219 C 31.5 17.058594 31.613281 17.433594 31.6875 17.816406 C 31.765625 18.199219 31.804688 18.585938 31.804688 18.976562 L 31.820312 34.941406 C 31.820312 35.0625 31.777344 35.167969 31.6875 35.257812 C 31.601562 35.34375 31.496094 35.386719 31.371094 35.386719 Z M 16.976562 35.386719 C 16.859375 35.386719 16.761719 35.347656 16.679688 35.265625 C 16.597656 35.183594 16.554688 35.082031 16.554688 34.96875 L 16.554688 22.375 C 16.554688 22.261719 16.597656 22.160156 16.679688 22.078125 C 16.761719 21.996094 16.859375 21.957031 16.976562 21.957031 L 22.25 21.957031 C 22.363281 21.960938 22.460938 22.003906 22.539062 22.082031 C 22.617188 22.164062 22.65625 22.261719 22.65625 22.375 L 22.65625 34.96875 C 22.65625 35.082031 22.613281 35.183594 22.53125 35.265625 C 22.449219 35.347656 22.351562 35.386719 22.234375 35.386719 Z M 16.976562 35.386719 " fill-opacity="1" fill-rule="nonzero"/></g></svg>

<svg xmlns="http://www.w3.org/2000/svg" width="4.2em" height="4.2em" version="1.0" viewBox="0 0 48.75 48.75"><defs><clipPath id="a"><path d="M0 0h48.5v48.5H0Zm0 0"/></clipPath><clipPath id="b"><path d="M7.406 13h33.578v23H7.406Zm0 0"/></clipPath></defs><g clip-path="url(#a)"><path fill="#fff" d="M0 0h48.5v48.5H0Zm0 0"/><path fill="#171717" d="M0 0h48.5v48.5H0Zm0 0"/></g><g clip-path="url(#b)"><path fill="#fff" d="M35.332 35.387a.43.43 0 0 1-.316-.13.43.43 0 0 1-.133-.316V13.45q-.001-.187.133-.316a.43.43 0 0 1 .316-.13h5.191a.42.42 0 0 1 .325.126q.136.13.136.32v21.492q-.001.186-.136.32a.44.44 0 0 1-.325.126Zm-8.703 0s-.418-.125-.418-.446V21.746a3.1 3.1 0 0 0-.207-1.203 3 3 0 0 0-.664-1.027 3 3 0 0 0-1.008-.684 3 3 0 0 0-1.2-.234h-9.71c-.559 0-.418.422-.418.422V34.94c0 .375-.422.446-.422.446H7.867a.44.44 0 0 1-.324-.125.42.42 0 0 1-.137-.32V13.448q-.002-.19.137-.32a.42.42 0 0 1 .324-.125H25.86q.587.002 1.16.121a5.95 5.95 0 0 1 3.044 1.64q.41.417.738.903c.215.328.398.668.55 1.031q.224.542.337 1.117.117.575.117 1.16l.015 15.965a.43.43 0 0 1-.133.317.43.43 0 0 1-.316.129Zm-9.652 0a.4.4 0 0 1-.297-.121.4.4 0 0 1-.125-.297V22.375a.4.4 0 0 1 .125-.297.4.4 0 0 1 .297-.121h5.273q.17.007.29.125a.4.4 0 0 1 .116.293v12.594a.4.4 0 0 1-.125.297.4.4 0 0 1-.297.12Zm0 0"/></g></svg>
